!!!ONB: MCCC : IFC0046_02 : Extracted Monophonic Melody
!!!COM: Chopin, Frédéric
!!!OPR: 2 Mazurkas
!!!OMV: 2
!!!SCT: B.16
!!!ODT: 1825///
**kern
*thru
*staff1
*clefG2
*k[f#]
*e:
*M3/4
*MM89.4
=1
4b
4b
8.cc
16b
=2
4b
8.a
16g#
4a
=3
4f#
4f#
8.g
16f#
=4
8f#
8e
8e
8d#
4e
=5
4b
4b
8.cc
16b
=6
8ee
8b
8a
8g#
4a
=7
8cc
8g
4f
8.e
16g
=8
2e
4b
=9
4b
4b
8.cc
16b
=10
4b
8.a
16g#
4a
=11
4f#
4f#
8.g
16f#
=12
8f#
8e
8e
8d#
8e
8g
=13
4b
4b
8.cc
16b
=14
8ee
8b
8a
8g#
4a
=15
8cc
8g
4f
8.e
16g
=16
2.e
=17
2d#
4e
=18
4f#
4..dd#
16dd#
=19
2dd#
[4dd#
=20
2dd#]
4dd#
=21
4dd#
8d#
8e
8a#
8g#
=22
4f#
4..dd#
16dd#
=23
2dd#
[4dd#
=24
2dd#]
[4dd#
=25
4dd#]
4d#
4e
=26
4f#
4..dd#
16dd#
=27
2dd#
[4dd#
=28
2dd#]
4dd#
=29
4dd#
8d#
8e
12a#
12g#
12f#
=30
4f#
4..dd#
16dd#
=31
2dd#
4dd#
=32
2dd#
4dd#
=33
4dd#
4.ee
8dd#
=34
8cc#
8b#
2cc#
=35
8dd#
8cc#
8g#
8f#
8b
8cc#
=36
2.dd#
=37
4b
4.cc#
8b
=38
8a#
8g##
2a#
=39
4a#
4.b
8f##
=40
8a#
8a
4g#
8f#
8e
=41
2d#
4e
=42
4f#
4..dd#
16dd#
=43
2dd#
[4dd#
=44
2dd#]
4dd#
=45
4dd#
8d#
8e
8a#
8g#
=46
4f#
4..dd#
16dd#
=47
2dd#
[4dd#
=48
2dd#]
[4dd#
=49
4dd#]
4d#
4e
=50
4f#
4..dd#
16dd#
=51
2dd#
[4dd#
=52
2dd#]
4dd#
=53
4dd#
8d#
8e
12a#
12g#
12f#
=54
4f#
4..dd#
16dd#
=55
2dd#
4dd#
=56
2dd#
4dd#
=57
4ee
4ee
4ee
=58
2.ee
=59
4b
4b
4b
=60
2.b
=61
4ee
4ee
4ee
=62
2.ee
=63
8cc
8g
4f
8.e
16g
=64
[2e
8.e]
16g
=65
[2e
8.e]
16g
=66
2e
4g
=67
8cc
8g
4f
8.e
16g
=68
2.e
==
*-
